X:2963
T: Lillhurven
C: Skår Arvid
R: Polska
O: Mörkret, Dalarna
S: Utlärd av Jonas Hjalmarsson
Z: Karin Arén
M: 3/4
L: 1/8
K: Dm
|: v([A,E]>^C) C3 v(D/E/ | F>D) (.D>.D) D>F | v(E>^C) D2 D>F | v(3(FED) E4 |
v([A,E]>^C) C3 v(D/E/ | F>D) (.D>.D) D>F | v(E>^C) D2 D>F | v(3(E^CE) D4 :|
|: v(A>^c) (d>e) f>d | vg2 (3(fdf) e>^c | vd>(e Tg>f) v(d2 | d)e/d/ u(^c>A) v(A2 |
AB/^c/) (d>e) f>d | vg2 (3(fdf) e>^c | vd>(e Tg>f) vd>d | v(3(^cAc) ud4 :|
(:musicend:)
(:music:)
